svgs/regular/print-slash.svg

<svg xmlns="http://www.w3.org/2000/svg" viewBox="0 0 640 512"><!--! Font Awesome Pro 6.6.0 by @fontawesome - https://fontawesome.com License - https://fontawesome.com/license (Commercial License) Copyright 2024 Fonticons, Inc. --><path d="M38.8 5.1C28.4-3.1 13.3-1.2 5.1 9.2S-1.2 34.7 9.2 42.9l592 464c10.4 8.2 25.5 6.3 33.7-4.1s6.3-25.5-4.1-33.7L542.6 400l1.4 0c17.7 0 32-14.3 32-32l0-112c0-35.3-28.7-64-64-64l-234.8 0L176 112.6 176 64c0-8.8 7.2-16 16-16l229.5 0c4.2 0 8.3 1.7 11.3 4.7l26.5 26.5c3 3 4.7 7.1 4.7 11.3l0 69.5 48 0 0-69.5c0-17-6.7-33.3-18.7-45.3L466.7 18.7C454.7 6.7 438.5 0 421.5 0L192 0c-35.3 0-64 28.7-64 64l0 11L38.8 5.1zM338.5 240L512 240c8.8 0 16 7.2 16 16l0 96-16 0-16 0-14.6 0L338.5 240zm-155.7 0l-60.6-47.7C89.6 195.2 64 222.6 64 256l0 112c0 17.7 14.3 32 32 32l48 0 0 80c0 17.7 14.3 32 32 32l288 0c15.5 0 28.5-11 31.4-25.7L448 449l0 15-256 0 0-96 153.2 0-60.9-48L176 320c-17.7 0-32 14.3-32 32l-32 0 0-96c0-8.8 7.2-16 16-16l54.8 0z"/></svg>

<svg xmlns="http://www.w3.org/2000/svg" viewBox="0 0 640 512"><!--! Font Awesome Pro 6.4.2 by @fontawesome - https://fontawesome.com License - https://fontawesome.com/license (Commercial License) Copyright 2023 Fonticons, Inc. --><path d="M38.8 5.1C28.4-3.1 13.3-1.2 5.1 9.2S-1.2 34.7 9.2 42.9l592 464c10.4 8.2 25.5 6.3 33.7-4.1s6.3-25.5-4.1-33.7L542.6 400H544c17.7 0 32-14.3 32-32V256c0-35.3-28.7-64-64-64H277.2L176 112.6V64c0-8.8 7.2-16 16-16H421.5c4.2 0 8.3 1.7 11.3 4.7l26.5 26.5c3 3 4.7 7.1 4.7 11.3V160h48V90.5c0-17-6.7-33.3-18.7-45.3L466.7 18.7C454.7 6.7 438.5 0 421.5 0H192c-35.3 0-64 28.7-64 64V75L38.8 5.1zM338.5 240H512c8.8 0 16 7.2 16 16v96H512 496 481.4L338.5 240zm-155.7 0l-60.6-47.7C89.6 195.2 64 222.6 64 256V368c0 17.7 14.3 32 32 32h48v80c0 17.7 14.3 32 32 32H464c15.5 0 28.5-11 31.4-25.7L448 449v15H192V368H345.2l-60.9-48H176c-17.7 0-32 14.3-32 32H112V256c0-8.8 7.2-16 16-16h54.8z"/></svg>
